green_cast_fix.cube
TITLE "Green Cast Fix - Metal Ceiling Scene"
LUT_3D_SIZE 33
DOMAIN_MIN 0.0 0.0 0.0
DOMAIN_MAX 1.0 1.0 1.0
0.008000 0.000000 0.006000
0.008000 0.000000 0.006000
0.026037 0.000000 0.006135
0.065474 0.000000 0.006430
0.104847 0.000000 0.006723
0.144116 0.000000 0.007014
0.183239 0.000000 0.007301
0.222176 0.000000 0.007583
0.260891 0.000000 0.007859
0.299349 0.000000 0.008129
0.337519 0.000000 0.008392
0.375374 0.000000 0.008646
0.412889 0.000000 0.008892
0.450045 0.000000 0.009128
0.486826 0.000000 0.009355
0.523220 0.000000 0.009571
0.559222 0.000000 0.009777
0.594829 0.000000 0.009972
0.630044 0.000000 0.010156
0.664876 0.000000 0.010329
0.699335 0.000000 0.010491
0.733438 0.000000 0.010641
0.767206 0.000000 0.010780
0.800663 0.000000 0.010908
0.833838 0.000000 0.011025
0.866761 0.000000 0.011131
0.899467 0.000000 0.011225
0.931992 0.000000 0.011309
0.964375 0.000000 0.011381
0.996657 0.000000 0.011442
1.000000 0.000000 0.011491
1.000000 0.000000 0.011496
1.000000 0.000000 0.011496
0.008000 0.000000 0.006000
0.008000 0.000000 0.006000
0.026037 0.000000 0.006135
0.065474 0.000000 0.006430
0.104847 0.000000 0.006723
0.144116 0.000000 0.007014
0.183239 0.000000 0.007301
0.222176 0.000000 0.007583
0.260891 0.000000 0.007859
0.299349 0.000000 0.008129
0.337519 0.000000 0.008392
0.375374 0.000000 0.008646
0.412889 0.000000 0.008892
0.450045 0.000000 0.009128
0.486826 0.000000 0.009355
0.523220 0.000000 0.009571
0.559222 0.000000 0.009777
0.594829 0.000000 0.009972
0.630044 0.000000 0.010156
0.664876 0.000000 0.010329
0.699335 0.000000 0.010491
0.733438 0.000000 0.010641
0.767206 0.000000 0.010780
0.800663 0.000000 0.010908
0.833838 0.000000 0.011025
0.866761 0.000000 0.011131
0.899467 0.000000 0.011225
0.931992 0.000000 0.011309
0.964375 0.000000 0.011381
0.996657 0.000000 0.011442
1.000000 0.000000 0.011491
1.000000 0.000000 0.011496
1.000000 0.000000 0.011496
0.008131 0.013482 0.006108
0.008131 0.013482 0.006108
0.026168 0.012783 0.006243
0.065604 0.011258 0.006538
0.104977 0.009739 0.006830
0.144245 0.008232 0.007120
0.183366 0.006739 0.007406
0.222301 0.005265 0.007686
0.261014 0.003812 0.007961
0.299470 0.002385 0.008229
0.337637 0.000986 0.008489
0.375489 0.000000 0.008741
0.413001 0.000000 0.008984
0.450153 0.000000 0.009218
0.486930 0.000000 0.009441
0.523320 0.000000 0.009654
0.559317 0.000000 0.009857
0.594920 0.000000 0.010048
0.630131 0.000000 0.010229
0.664957 0.000000 0.010398
0.699411 0.000000 0.010555
0.733509 0.000000 0.010702
0.767271 0.000000 0.010837
0.800723 0.000000 0.010960
0.833892 0.000000 0.011073
0.866809 0.000000 0.011174
0.899510 0.000000 0.011263
0.932029 0.000000 0.011342
0.964406 0.000000 0.011409
0.996681 0.000000 0.011465
1.000000 0.000000 0.011510
1.000000 0.000000 0.011514
1.000000 0.000000 0.011514
0.008417 0.042997 0.006344
0.008417 0.042997 0.006344
0.026454 0.042299 0.006479
0.065889 0.040777 0.006772
0.105260 0.039264 0.007063
0.144524 0.037764 0.007351
0.183641 0.036280 0.007634
0.222572 0.034817 0.007911
0.261280 0.033377 0.008181
0.299730 0.031964 0.008445
0.337891 0.030581 0.008700
0.375736 0.029231 0.008946
0.413240 0.027915 0.009183
0.450384 0.026636 0.009410
0.487152 0.025395 0.009626
0.523532 0.024194 0.009832
0.559520 0.023033 0.010027
0.595112 0.021914 0.010210
0.630312 0.020836 0.010382
0.665128 0.019800 0.010542
0.699570 0.018807 0.010691
0.733656 0.017855 0.010828
0.767407 0.016944 0.010953
0.800846 0.016074 0.011067
0.834003 0.015244 0.011169
0.866907 0.014455 0.011260
0.899594 0.013704 0.011339
0.932100 0.012991 0.011407
0.964463 0.012317 0.011464
0.996724 0.011680 0.011509
1.000000 0.011081 0.011542
1.000000 0.011015 0.011545
1.000000 0.011015 0.011545
0.016526 0.056133 0.015210
0.016526 0.056133 0.015210
0.026740 0.071890 0.006715
0.066172 0.070373 0.007007
0.105540 0.068867 0.007295
0.144801 0.067375 0.007580
0.183914 0.065903 0.007859
0.222840 0.064452 0.008132
0.261542 0.063026 0.008398
0.299986 0.061630 0.008657
0.338140 0.060264 0.008906
0.375977 0.058933 0.009146
0.413472 0.057638 0.009377
0.450607 0.056381 0.009596
0.487366 0.055163 0.009805
0.523737 0.053987 0.010003
0.559714 0.052852 0.010190
0.595296 0.051759 0.010364
0.630484 0.050709 0.010527
0.665288 0.049702 0.010678
0.699719 0.048738 0.010818
0.733793 0.047816 0.010945
0.767531 0.046937 0.011061
0.800958 0.046098 0.011164
0.834101 0.045301 0.011256
0.866992 0.044544 0.011337
0.899666 0.043827 0.011405
0.932158 0.043149 0.011462
0.964507 0.042509 0.011508
0.996754 0.041908 0.011541
1.000000 0.041344 0.011563
1.000000 0.041282 0.011565
1.000000 0.041282 0.011565
0.020534 0.078385 0.019186
0.020534 0.078385 0.019186
0.033929 0.080169 0.021483
0.066455 0.100095 0.007240
0.105820 0.098597 0.007526
0.145076 0.097116 0.007807
0.184184 0.095656 0.008082
0.223105 0.094219 0.008351
0.261800 0.092810 0.008612
0.300237 0.091431 0.008865
0.338383 0.090085 0.009108
0.376211 0.088774 0.009342
0.413698 0.087501 0.009565
0.450824 0.086267 0.009777
0.487572 0.085075 0.009978
0.523933 0.083924 0.010168
0.559899 0.082816 0.010346
0.595470 0.081751 0.010511
0.630647 0.080730 0.010665
0.665439 0.079753 0.010807
0.699857 0.078820 0.010936
0.733918 0.077929 0.011054
0.767644 0.077082 0.011159
0.801057 0.076276 0.011252
0.834187 0.075512 0.011334
0.867065 0.074789 0.011403
0.899724 0.074107 0.011461
0.932202 0.073464 0.011507
0.964537 0.072860 0.011540
0.996770 0.072294 0.011563
1.000000 0.071767 0.011573
1.000000 0.071710 0.011573
1.000000 0.071710 0.011573
0.024563 0.100766 0.023184
0.024563 0.100766 0.023184
0.037957 0.102551 0.025480
0.067242 0.106460 0.030498
0.106097 0.128504 0.007755
0.145349 0.127035 0.008032
0.184451 0.125589 0.008303
0.223365 0.124168 0.008567
0.262054 0.122776 0.008822
0.300482 0.121416 0.009069
0.338620 0.120091 0.009306
0.376440 0.118802 0.009532
0.413917 0.117553 0.009748
0.451033 0.116344 0.009952
0.487771 0.115178 0.010145
0.524121 0.114054 0.010326
0.560075 0.112975 0.010495
0.595634 0.111939 0.010651
0.630799 0.110949 0.010795
0.665578 0.110002 0.010927
0.699984 0.109101 0.011046
0.734032 0.108243 0.011153
0.767744 0.107428 0.011248
0.801144 0.106656 0.011331
0.834260 0.105927 0.011401
0.867124 0.105239 0.011459
0.899769 0.104591 0.011506
0.932233 0.103984 0.011540
0.964553 0.103417 0.011562
0.996771 0.102889 0.011573
1.000000 0.102399 0.011571
1.000000 0.102346 0.011570
1.000000 0.102346 0.011570
0.028619 0.123310 0.027210
0.028619 0.123310 0.027210
0.042013 0.125098 0.029505
0.071295 0.129013 0.034521
0.100529 0.132932 0.039528
0.145619 0.157179 0.008256
0.184715 0.155748 0.008522
0.223622 0.154344 0.008780
0.262303 0.152972 0.009029
0.300723 0.151632 0.009269
0.338852 0.150329 0.009499
0.376662 0.149065 0.009718
0.414129 0.147840 0.009925
0.451234 0.146658 0.010121
0.487961 0.145519 0.010305
0.524299 0.144424 0.010477
0.560242 0.143374 0.010636
0.595789 0.142370 0.010783
0.630941 0.141411 0.010917
0.665707 0.140497 0.011038
0.700100 0.139628 0.011147
0.734135 0.138803 0.011243
0.767833 0.138023 0.011327
0.801219 0.137286 0.011399
0.834321 0.136592 0.011458
0.867170 0.135940 0.011505
0.899800 0.135329 0.011539
0.932249 0.134759 0.011562
0.964555 0.134229 0.011572
0.996757 0.133738 0.011571
1.000000 0.133287 0.011557
1.000000 0.133238 0.011554
1.000000 0.133238 0.011554
0.032708 0.146050 0.031268
0.032708 0.146050 0.031268
0.046101 0.147841 0.033563
0.075381 0.151764 0.038577
0.104612 0.155691 0.043582
0.145886 0.187591 0.008477
0.184975 0.186177 0.008737
0.223874 0.184793 0.008989
0.262547 0.183441 0.009232
0.300958 0.182124 0.009465
0.339077 0.180845 0.009687
0.376877 0.179606 0.009898
0.414334 0.178408 0.010097
0.451428 0.177254 0.010284
0.488143 0.176144 0.010459
0.524469 0.175079 0.010621
0.560399 0.174060 0.010770
0.595933 0.173088 0.010906
0.631072 0.172161 0.011030
0.665825 0.171281 0.011141
0.700203 0.170446 0.011239
0.734224 0.169657 0.011324
0.767908 0.168912 0.011396
0.801280 0.168211 0.011456
0.834367 0.167553 0.011504
0.867201 0.166938 0.011539
0.899817 0.166364 0.011562
0.932251 0.165832 0.011572
0.964541 0.165340 0.011571
0.996728 0.164888 0.011557
1.000000 0.164476 0.011530
1.000000 0.164431 0.011529
1.000000 0.164431 0.011529
0.036835 0.169016 0.035365
0.036835 0.169016 0.035365
0.050227 0.170811 0.037658
0.079504 0.174743 0.042671
0.108732 0.178680 0.047673
0.137879 0.182621 0.052658
0.185231 0.216919 0.008950
0.224122 0.215555 0.009195
0.262785 0.214225 0.009431
0.301187 0.212933 0.009656
0.339296 0.211679 0.009870
0.377085 0.210467 0.010072
0.414531 0.209297 0.010262
0.451612 0.208173 0.010440
0.488315 0.207093 0.010605
0.524629 0.206060 0.010757
0.560546 0.205074 0.010896
0.596066 0.204135 0.011022
0.631192 0.203242 0.011134
0.665930 0.202397 0.011234
0.700295 0.201598 0.011321
0.734301 0.200844 0.011394
0.767970 0.200136 0.011455
0.801327 0.199472 0.011503
0.834399 0.198852 0.011539
0.867218 0.198274 0.011562
0.899819 0.197739 0.011572
0.932237 0.197245 0.011571
0.964511 0.196792 0.011556
0.996682 0.196380 0.011530
1.000000 0.196008 0.011635
1.000000 0.195968 0.011648
1.000000 0.195968 0.011648
0.041005 0.192238 0.039504
0.041005 0.192238 0.039504
0.054395 0.194037 0.041796
0.083669 0.197978 0.046806
0.112893 0.201927 0.051805
0.142037 0.205880 0.056788
0.171069 0.209835 0.061748
0.224365 0.246668 0.009397
0.263018 0.245363 0.009625
0.301410 0.244096 0.009842
0.339508 0.242870 0.010047
0.377285 0.241686 0.010240
0.414719 0.240546 0.010421
0.451788 0.239453 0.010589
0.488478 0.238405 0.010743
0.524778 0.237406 0.010885
0.560682 0.236453 0.011013
0.596188 0.235549 0.011128
0.631299 0.234692 0.011229
0.666023 0.233883 0.011317
0.700373 0.233120 0.011392
0.734364 0.232404 0.011454
0.768019 0.231733 0.011503
0.801360 0.231108 0.011539
0.834416 0.230526 0.011562
0.867220 0.229988 0.011573
0.899804 0.229492 0.011571
0.932207 0.229038 0.011556
0.964465 0.228625 0.011529
0.996816 0.228253 0.011637
1.000000 0.227922 0.011743
1.000000 0.227886 0.011754
1.000000 0.227886 0.011754
0.045220 0.215739 0.043689
0.045220 0.215739 0.043689
0.058609 0.217542 0.045981
0.087880 0.221495 0.050988
0.117100 0.225456 0.055984
0.146239 0.229423 0.060963
0.175266 0.233393 0.065919
0.204153 0.237363 0.070848
0.263245 0.276887 0.009815
0.301625 0.275648 0.010023
0.339712 0.274451 0.010219
0.377477 0.273297 0.010402
0.414898 0.272189 0.010573
0.451954 0.271128 0.010730
0.488630 0.270115 0.010874
0.524917 0.269150 0.011004
0.560806 0.268233 0.011121
0.596297 0.267365 0.011224
0.631394 0.266545 0.011314
0.666103 0.265773 0.011390
0.700437 0.265049 0.011453
0.734413 0.264371 0.011502
0.768052 0.263739 0.011539
0.801377 0.263153 0.011562
0.834418 0.262611 0.011573
0.867205 0.262113 0.011570
0.899774 0.261657 0.011556
0.932159 0.261244 0.011528
0.964605 0.260872 0.011641
0.996954 0.260541 0.011746
1.000000 0.260252 0.011838
1.000000 0.260221 0.011848
1.000000 0.260221 0.011848
0.049486 0.239542 0.047925
0.049486 0.239542 0.047925
0.062873 0.241350 0.050215
0.092139 0.245316 0.055219
0.121355 0.249291 0.060211
0.150489 0.253272 0.065187
0.179511 0.257258 0.070139
0.208392 0.261245 0.075064
0.263465 0.308829 0.009999
0.301833 0.307619 0.010197
0.339907 0.306452 0.010383
0.377660 0.305331 0.010557
0.415067 0.304256 0.010717
0.452109 0.303230 0.010863
0.488772 0.302251 0.010996
0.525043 0.301322 0.011114
0.560918 0.300443 0.011219
0.596394 0.299612 0.011311
0.631475 0.298831 0.011388
0.666169 0.298098 0.011452
0.700487 0.297413 0.011502
0.734447 0.296775 0.011539
0.768069 0.296184 0.011562
0.801379 0.295638 0.011573
0.834403 0.295137 0.011570
0.867174 0.294680 0.011555
0.899725 0.294265 0.011527
0.932306 0.293894 0.011645
0.964743 0.293564 0.011750
0.997075 0.293276 0.011842
1.000000 0.293028 0.011921
1.000000 0.293003 0.011929
1.000000 0.293003 0.011929
0.053803 0.263665 0.052213
0.053803 0.263665 0.052213
0.067188 0.265479 0.054501
0.096450 0.269458 0.059502
0.125661 0.273448 0.064491
0.154789 0.277446 0.069462
0.183806 0.281449 0.074410
0.212681 0.285455 0.079330
0.241388 0.289460 0.084218
0.302033 0.340033 0.010365
0.340094 0.338899 0.010541
0.377833 0.337812 0.010704
0.415226 0.336772 0.010852
0.452254 0.335782 0.010987
0.488901 0.334841 0.011108
0.525157 0.333949 0.011215
0.561016 0.333108 0.011307
0.596477 0.332317 0.011386
0.631542 0.331575 0.011451
0.666219 0.330883 0.011502
0.700521 0.330238 0.011539
0.734465 0.329642 0.011562
0.768070 0.329092 0.011573
0.801363 0.328588 0.011570
0.834370 0.328129 0.011554
0.867133 0.327714 0.011532
0.899881 0.327342 0.011651
0.932446 0.327013 0.011756
0.964865 0.326726 0.011847
0.997180 0.326481 0.011925
1.000000 0.326277 0.011990
1.000000 0.326257 0.011997
1.000000 0.326257 0.011997
0.058174 0.288122 0.056555
0.058174 0.288122 0.056555
0.071558 0.289943 0.058842
0.100814 0.293937 0.063839
0.130020 0.297944 0.068824
0.159143 0.301959 0.073791
0.188153 0.305981 0.078734
0.217022 0.310006 0.083650
0.245722 0.314032 0.088532
0.274229 0.318056 0.093377
0.340270 0.371813 0.010691
0.377995 0.370761 0.010842
0.415373 0.369758 0.010979
0.452386 0.368805 0.011102
0.489017 0.367903 0.011210
0.525258 0.367051 0.011304
0.561101 0.366250 0.011384
0.596545 0.365500 0.011450
0.631593 0.364799 0.011501
0.666254 0.364148 0.011539
0.700539 0.363546 0.011563
0.734466 0.362992 0.011573
0.768054 0.362485 0.011570
0.801329 0.362024 0.011553
0.834340 0.361608 0.011539
0.867291 0.361236 0.011657
0.900022 0.360908 0.011762
0.932568 0.360623 0.011853
0.964970 0.360380 0.011931
0.997267 0.360178 0.011995
1.000000 0.360019 0.012046
1.000000 0.360003 0.012051
1.000000 0.360003 0.012051
0.062601 0.312926 0.060954
0.062601 0.312926 0.060954
0.075982 0.314754 0.063239
0.105233 0.318764 0.068232
0.134433 0.322788 0.073212
0.163550 0.326823 0.078174
0.192553 0.330864 0.083113
0.221415 0.334911 0.088023
0.250108 0.338959 0.092900
0.278608 0.343005 0.097739
0.306890 0.347049 0.102536
0.378145 0.404193 0.010971
0.415508 0.403229 0.011096
0.452504 0.402315 0.011206
0.489120 0.401453 0.011302
0.525344 0.400643 0.011383
0.561170 0.399884 0.011449
0.596597 0.399175 0.011501
0.631628 0.398518 0.011539
0.666272 0.397910 0.011563
0.700539 0.397351 0.011573
0.734448 0.396841 0.011569
0.768019 0.396377 0.011552
0.801310 0.395960 0.011546
0.834498 0.395589 0.011665
0.867432 0.395262 0.011769
0.900144 0.394978 0.011860
0.932673 0.394737 0.011936
0.965057 0.394539 0.012000
0.997336 0.394383 0.012049
1.000000 0.394268 0.012086
1.000000 0.394258 0.012089
1.000000 0.394258 0.012089
0.067083 0.338082 0.065408
0.067083 0.338082 0.065408
0.080462 0.339918 0.067692
0.109707 0.343946 0.072680
0.138901 0.347989 0.077656
0.168011 0.352044 0.082613
0.197008 0.356107 0.087547
0.225862 0.360176 0.092451
0.254548 0.364247 0.097322
0.283039 0.368318 0.102155
0.311313 0.372386 0.106946
0.339350 0.376449 0.111691
0.415629 0.437194 0.011202
0.452609 0.436322 0.011299
0.489208 0.435502 0.011381
0.525414 0.434735 0.011449
0.561223 0.434019 0.011502
0.596633 0.433354 0.011540
0.631646 0.432741 0.011563
0.666272 0.432178 0.011573
0.700521 0.431664 0.011569
0.734412 0.431198 0.011550
0.768012 0.430780 0.011554
0.801470 0.430408 0.011673
0.834640 0.430082 0.011777
0.867555 0.429800 0.011867
0.900249 0.429562 0.011943
0.932760 0.429367 0.012005
0.965125 0.429214 0.012054
0.997386 0.429104 0.012089
1.000000 0.429035 0.012111
1.000000 0.429030 0.012113
1.000000 0.429030 0.012113
0.071621 0.363595 0.069920
0.071621 0.363595 0.069920
0.084997 0.365439 0.072201
0.114236 0.369486 0.077185
0.143423 0.373550 0.082155
0.172526 0.377626 0.087107
0.201515 0.381712 0.092035
0.230362 0.385804 0.096934
0.259040 0.389900 0.101798
0.287523 0.393997 0.106625
0.315788 0.398091 0.111409
0.343816 0.402181 0.116148
0.371590 0.406263 0.120838
0.452698 0.470831 0.011380
0.489279 0.470054 0.011448
0.525468 0.469331 0.011502
0.561259 0.468660 0.011540
0.596650 0.468041 0.011564
0.631645 0.467473 0.011573
0.666252 0.466956 0.011568
0.700484 0.466488 0.011549
0.734419 0.466069 0.011563
0.768173 0.465697 0.011682
0.801611 0.465371 0.011786
0.834763 0.465092 0.011875
0.867660 0.464856 0.011950
0.900335 0.464665 0.012011
0.932827 0.464516 0.012058
0.965174 0.464410 0.012092
0.997416 0.464346 0.012113
1.000000 0.464323 0.012120
1.000000 0.464323 0.012120
1.000000 0.464323 0.012120
0.076213 0.389462 0.074486
0.076213 0.389462 0.074486
0.089586 0.391315 0.076765
0.118819 0.395383 0.081744
0.147998 0.399468 0.086709
0.177094 0.403568 0.091655
0.206075 0.407677 0.096577
0.234914 0.411795 0.101469
0.263583 0.415917 0.106328
0.292057 0.420040 0.111148
0.320314 0.424162 0.115925
0.348333 0.428280 0.120657
0.376097 0.432392 0.125340
0.403592 0.436495 0.129972
0.489334 0.505109 0.011502
0.525504 0.504431 0.011541
0.561276 0.503806 0.011564
0.596649 0.503234 0.011573
0.631625 0.502713 0.011567
0.666213 0.502243 0.011547
0.700505 0.501823 0.011573
0.734580 0.501451 0.011691
0.768315 0.501126 0.011795
0.801734 0.500849 0.011883
0.834867 0.500616 0.011957
0.867745 0.500428 0.012017
0.900401 0.500284 0.012063
0.932874 0.500183 0.012096
0.965202 0.500124 0.012115
0.997425 0.500107 0.012120
1.000000 0.500131 0.012112
1.000000 0.500137 0.012110
1.000000 0.500137 0.012110
0.080858 0.415679 0.079106
0.080858 0.415679 0.079106
0.094227 0.417542 0.081383
0.123453 0.421632 0.086356
0.152625 0.425741 0.091315
0.181713 0.429864 0.096256
0.210686 0.434000 0.101171
0.239516 0.438143 0.106057
0.268176 0.442293 0.110909
0.296641 0.446444 0.115722
0.324888 0.450595 0.120492
0.352897 0.454742 0.125217
0.380652 0.458884 0.129892
0.408137 0.463017 0.134517
0.435341 0.467140 0.139088
0.525521 0.540028 0.011565
0.561274 0.539451 0.011573
0.596627 0.538927 0.011567
0.631584 0.538455 0.011545
0.666249 0.538033 0.011582
0.700666 0.537661 0.011701
0.734722 0.537338 0.011804
0.768437 0.537062 0.011892
0.801838 0.536833 0.011965
0.834951 0.536649 0.012024
0.867809 0.536509 0.012068
0.900446 0.536413 0.012099
0.932900 0.536360 0.012116
0.965208 0.536349 0.012120
0.997412 0.536379 0.012110
1.000000 0.536452 0.012087
1.000000 0.536462 0.012083
1.000000 0.536462 0.012083
0.085552 0.442237 0.083778
0.085552 0.442237 0.083778
0.098919 0.444110 0.086052
0.128136 0.448224 0.091019
0.157300 0.452357 0.095972
0.186380 0.456507 0.100906
0.215344 0.460669 0.105815
0.244165 0.464841 0.110694
0.272816 0.469018 0.115539
0.301271 0.473199 0.120344
0.329509 0.477380 0.125107
0.357508 0.481558 0.129824
0.385252 0.485730 0.134492
0.412727 0.489895 0.139109
0.439921 0.494050 0.143672
0.466827 0.498194 0.148181
0.561251 0.575583 0.011566
0.596585 0.575109 0.011544
0.631636 0.574686 0.011592
0.666411 0.574314 0.011711
0.700808 0.573992 0.011814
0.734844 0.573718 0.011901
0.768540 0.573492 0.011973
0.801920 0.573312 0.012031
0.835013 0.573177 0.012074
0.867852 0.573086 0.012102
0.900469 0.573039 0.012117
0.932903 0.573034 0.012119
0.965192 0.573072 0.012107
0.997377 0.573151 0.012082
1.000000 0.573271 0.012043
1.000000 0.573288 0.012038
1.000000 0.573288 0.012038
0.090294 0.469123 0.088498
0.090294 0.469123 0.088498
0.103656 0.471007 0.090769
0.132866 0.475146 0.095730
0.162022 0.479306 0.100677
0.191092 0.483482 0.105604
0.220047 0.487673 0.110506
0.248859 0.491873 0.115377
0.277500 0.496081 0.120215
0.305945 0.500292 0.125013
0.334172 0.504504 0.129768
0.362161 0.508714 0.134477
0.389895 0.512919 0.139137
0.417359 0.517116 0.143746
0.444543 0.521304 0.148301
0.471438 0.525481 0.152802
0.498040 0.529646 0.157247
0.596652 0.611760 0.011602
0.631798 0.611388 0.011721
0.666553 0.611067 0.011823
0.700929 0.610796 0.011910
0.734945 0.610573 0.011981
0.768620 0.610397 0.012037
0.801980 0.610267 0.012079
0.835054 0.610182 0.012106
0.867872 0.610141 0.012119
0.900470 0.610144 0.012118
0.932884 0.610188 0.012104
0.965153 0.610275 0.012076
0.997318 0.610402 0.012035
1.000000 0.610571 0.011981
1.000000 0.610593 0.011974
1.000000 0.610593 0.011974
0.095078 0.496321 0.093262
0.095078 0.496321 0.093262
0.108437 0.498217 0.095530
0.137638 0.502382 0.100485
0.166784 0.506569 0.105425
0.195845 0.510774 0.110345
0.224791 0.514994 0.115239
0.253593 0.519225 0.120104
0.282223 0.523464 0.124933
0.310658 0.527707 0.129723
0.338875 0.531951 0.134471
0.366854 0.536194 0.139171
0.394577 0.540432 0.143823
0.422030 0.544663 0.148423
0.449202 0.548884 0.152970
0.476086 0.553095 0.157463
0.502804 0.557327 0.162003
0.529296 0.561564 0.166544
0.631939 0.648540 0.011833
0.666673 0.648271 0.011919
0.701029 0.648051 0.011989
0.735024 0.647879 0.012044
0.768679 0.647755 0.012083
0.802018 0.647676 0.012109
0.835071 0.647642 0.012119
0.867869 0.647651 0.012116
0.900447 0.647703 0.012100
0.932841 0.647798 0.012070
0.965091 0.647934 0.012026
0.997236 0.648110 0.011970
1.000000 0.648328 0.011900
1.000000 0.648356 0.011892
1.000000 0.648356 0.011892
0.099901 0.523810 0.098066
0.099901 0.523810 0.098066
0.113255 0.525718 0.100332
0.142448 0.529912 0.105279
0.171585 0.534127 0.110212
0.200636 0.538362 0.115125
0.229571 0.542613 0.120012
0.258363 0.546876 0.124868
0.286983 0.551147 0.129690
0.315407 0.555423 0.134472
0.343613 0.559700 0.139211
0.371581 0.563977 0.143903
0.399292 0.568249 0.148546
0.426734 0.572514 0.153138
0.453895 0.576771 0.157676
0.480910 0.581054 0.162276
0.507687 0.585339 0.166866
0.534168 0.589611 0.171398
0.560355 0.593869 0.175874
0.666771 0.685896 0.011997
0.701106 0.685729 0.012050
0.735080 0.685610 0.012088
0.768714 0.685537 0.012111
0.802033 0.685510 0.012120
0.835065 0.685527 0.012114
0.867843 0.685587 0.012095
0.900400 0.685690 0.012062
0.932774 0.685834 0.012016
0.965004 0.686020 0.011957
0.997129 0.686246 0.011885
1.000000 0.686513 0.011800
1.000000 0.686546 0.011790
1.000000 0.686546 0.011790
0.104757 0.551568 0.102906
0.104757 0.551568 0.102906
0.118107 0.553489 0.105168
0.147290 0.557711 0.110109
0.176417 0.561957 0.115034
0.205458 0.566223 0.119939
0.234383 0.570506 0.124818
0.263164 0.574801 0.129666
0.291773 0.579106 0.134479
0.320187 0.583416 0.139253
0.348381 0.587728 0.143984
0.376337 0.592039 0.148668
0.404037 0.596347 0.153302
0.431468 0.600647 0.157885
0.458775 0.604981 0.162543
0.485835 0.609314 0.167180
0.512600 0.613635 0.171761
0.539069 0.617943 0.176285
0.565246 0.622236 0.180752
0.591134 0.626515 0.185164
0.701159 0.723798 0.012092
0.735112 0.723732 0.012114
0.768725 0.723711 0.012120
0.802023 0.723736 0.012112
0.835034 0.723805 0.012090
0.867791 0.723916 0.012055
0.900328 0.724070 0.012006
0.932682 0.724264 0.011944
0.964892 0.724500 0.011869
0.996997 0.724775 0.011781
1.000000 0.725091 0.011680
1.000000 0.725129 0.011668
1.000000 0.725129 0.011668
0.109641 0.579567 0.107776
0.109641 0.579567 0.107776
0.122987 0.581502 0.110035
0.152159 0.585755 0.114968
0.181276 0.590032 0.119885
0.210307 0.594331 0.124782
0.239221 0.598647 0.129653
0.267991 0.602976 0.134493
0.296589 0.607315 0.139297
0.324991 0.611660 0.144062
0.353174 0.616008 0.148784
0.381118 0.620355 0.153459
0.408807 0.624698 0.158085
0.436398 0.629080 0.162799
0.463737 0.633461 0.167484
0.490785 0.637831 0.172113
0.517538 0.642188 0.176684
0.543996 0.646531 0.181199
0.570160 0.650860 0.185657
0.596037 0.655175 0.190061
0.621637 0.659476 0.194411
0.735120 0.762207 0.012120
0.768711 0.762240 0.012109
0.801988 0.762317 0.012085
0.834979 0.762438 0.012046
0.867715 0.762601 0.011994
0.900232 0.762805 0.011929
0.932565 0.763050 0.011851
0.964755 0.763335 0.011760
0.996841 0.763660 0.011656
1.000000 0.764025 0.011540
1.000000 0.764069 0.011526
1.000000 0.764069 0.011526
0.114547 0.607780 0.112670
0.114547 0.607780 0.112670
0.127888 0.609729 0.114925
0.157050 0.614014 0.119851
0.186157 0.618324 0.124760
0.215176 0.622656 0.129648
0.244079 0.627006 0.134511
0.272838 0.631370 0.139342
0.301424 0.635744 0.144138
0.329814 0.640125 0.148894
0.357985 0.644509 0.153607
0.385918 0.648893 0.158273
0.413781 0.653322 0.163041
0.441391 0.657749 0.167772
0.468718 0.662167 0.172448
0.495754 0.666574 0.177067
0.522495 0.670967 0.181629
0.548941 0.675347 0.186135
0.575094 0.679712 0.190585
0.600959 0.684063 0.194979
0.626547 0.688400 0.199321
0.651869 0.692724 0.203612
0.768672 0.801083 0.012078
0.801928 0.801213 0.012037
0.834898 0.801385 0.011982
0.867614 0.801600 0.011914
