green_cast_fix.cube
TITLE "Green Cast Fix - Metal Ceiling Scene"
LUT_3D_SIZE 5
DOMAIN_MIN 0.0 0.0 0.0
DOMAIN_MAX 1.0 1.0 1.0
0.008000 0.000000 0.006000
0.260891 0.000000 0.007859
0.559222 0.000000 0.009777
0.833838 0.000000 0.011025
1.000000 0.000000 0.011496
0.032708 0.146050 0.031268
0.262547 0.183441 0.009232
0.560399 0.174060 0.010770
0.834367 0.167553 0.011504
1.000000 0.164431 0.011529
0.067083 0.338082 0.065408
0.254548 0.364247 0.097322
0.561223 0.434019 0.011502
0.834640 0.430082 0.011777
1.000000 0.429030 0.012113
0.104757 0.551568 0.102906
0.291773 0.579106 0.134479
0.512600 0.613635 0.171761
0.835034 0.723805 0.012090
1.000000 0.725129 0.011668
0.134824 0.725395 0.132926
0.321648 0.754385 0.164368
0.542957 0.791025 0.202076
0.746497 0.826866 0.236366
1.000000 0.967091 0.010496
0.010189 0.000000 0.249234
0.262833 0.000000 0.250898
0.560575 0.000000 0.252347
0.834404 0.000000 0.252972
1.000000 0.000000 0.253097
0.011853 0.183696 0.250614
0.264114 0.175574 0.251973
0.561183 0.168145 0.252889
0.834530 0.163926 0.253117
1.000000 0.162654 0.253523
0.097980 0.363228 0.245839
0.285092 0.390475 0.277484
0.561381 0.430374 0.253111
0.835071 0.429010 0.253546
1.000000 0.429888 0.253266
0.135221 0.578042 0.283007
0.322048 0.607038 0.314452
0.543354 0.643684 0.352158
0.834294 0.725646 0.252930
1.000000 0.728817 0.251919
0.165069 0.753268 0.312874
0.352513 0.784094 0.344849
0.573207 0.822620 0.382090
0.776205 0.860123 0.415969
1.000000 0.972823 0.250095
0.012485 0.000000 0.540970
0.264536 0.000000 0.542162
0.561273 0.000000 0.542814
0.834834 0.000000 0.543188
1.000000 0.000000 0.543372
0.013686 0.174376 0.541981
0.265155 0.168224 0.542712
0.561465 0.163737 0.543007
0.835063 0.162600 0.543370
1.000000 0.163643 0.543037
0.014548 0.434238 0.542743
0.265343 0.430415 0.542927
0.561923 0.429026 0.543370
0.834333 0.430846 0.542790
1.000000 0.433960 0.541797
0.171699 0.611746 0.499173
0.359038 0.642896 0.531069
0.579607 0.681802 0.568216
0.832221 0.730806 0.541114
1.000000 0.735923 0.539482
0.202080 0.789064 0.529506
0.388898 0.821808 0.561007
0.608884 0.862503 0.597711
0.811313 0.901752 0.631156
1.000000 0.981903 0.537028
0.014008 0.000000 0.817442
0.265241 0.000000 0.817985
0.561704 0.000000 0.818381
0.834982 0.000000 0.818489
1.000000 0.000000 0.817973
0.014556 0.167689 0.817935
0.265368 0.163923 0.818132
0.561920 0.162606 0.818552
0.834303 0.164492 0.817950
1.000000 0.167650 0.816943
0.014812 0.430147 0.818197
0.265907 0.429010 0.818559
0.561171 0.430897 0.817957
0.832425 0.435595 0.816459
1.000000 0.440575 0.814871
0.015240 0.723787 0.818536
0.265129 0.725650 0.817942
0.559041 0.730902 0.816267
0.829218 0.738279 0.813914
1.000000 0.744821 0.811827
0.236546 0.825118 0.734680
0.422797 0.859602 0.765750
0.642197 0.902094 0.802008
0.844209 0.942618 0.835138
1.000000 0.992039 0.808979
0.014558 0.000000 1.000000
0.265372 0.000000 1.000000
0.561919 0.000000 1.000000
0.834298 0.000000 1.000000
1.000000 0.000000 1.000000
0.014525 0.164431 1.000000
0.265885 0.162637 1.000000
0.561460 0.163748 1.000000
0.832979 0.167787 1.000000
1.000000 0.172354 1.000000
0.015261 0.429030 1.000000
0.265530 0.429950 1.000000
0.559852 0.434178 1.000000
0.830344 0.440772 1.000000
1.000000 0.446881 1.000000
0.014700 0.725129 1.000000
0.263799 0.728961 1.000000
0.556893 0.736246 1.000000
0.826491 0.745066 1.000000
1.000000 0.752327 1.000000
0.013224 0.967091 1.000000
0.261479 0.973023 1.000000
0.553777 0.982289 1.000000
0.822894 0.992306 1.000000
1.000000 1.000000 1.000000
