green_cast_fix.cube
TITLE "Green Cast Fix - Metal Ceiling Scene"
LUT_3D_SIZE 9
DOMAIN_MIN 0.0 0.0 0.0
DOMAIN_MAX 1.0 1.0 1.0
0.008000 0.000000 0.006000
0.104847 0.000000 0.006723
0.260891 0.000000 0.007859
0.412889 0.000000 0.008892
0.559222 0.000000 0.009777
0.699335 0.000000 0.010491
0.833838 0.000000 0.011025
0.964375 0.000000 0.011381
1.000000 0.000000 0.011496
0.016526 0.056133 0.015210
0.105540 0.068867 0.007295
0.261542 0.063026 0.008398
0.413472 0.057638 0.009377
0.559714 0.052852 0.010190
0.699719 0.048738 0.010818
0.834101 0.045301 0.011256
0.964507 0.042509 0.011508
1.000000 0.041282 0.011565
0.032708 0.146050 0.031268
0.104612 0.155691 0.043582
0.262547 0.183441 0.009232
0.414334 0.178408 0.010097
0.560399 0.174060 0.010770
0.700203 0.170446 0.011239
0.834367 0.167553 0.011504
0.964541 0.165340 0.011571
1.000000 0.164431 0.011529
0.049486 0.239542 0.047925
0.121355 0.249291 0.060211
0.263465 0.308829 0.009999
0.415067 0.304256 0.010717
0.560918 0.300443 0.011219
0.700487 0.297413 0.011502
0.834403 0.295137 0.011570
0.964743 0.293564 0.011750
1.000000 0.293003 0.011929
0.067083 0.338082 0.065408
0.138901 0.347989 0.077656
0.254548 0.364247 0.097322
0.415629 0.437194 0.011202
0.561223 0.434019 0.011502
0.700521 0.431664 0.011569
0.834640 0.430082 0.011777
0.965125 0.429214 0.012054
1.000000 0.429030 0.012113
0.085552 0.442237 0.083778
0.157300 0.452357 0.095972
0.272816 0.469018 0.115539
0.385252 0.485730 0.134492
0.561251 0.575583 0.011566
0.700808 0.573992 0.011814
0.835013 0.573177 0.012074
0.965192 0.573072 0.012107
1.000000 0.573288 0.012038
0.104757 0.551568 0.102906
0.176417 0.561957 0.115034
0.291773 0.579106 0.134479
0.404037 0.596347 0.153302
0.512600 0.613635 0.171761
0.701159 0.723798 0.012092
0.835034 0.723805 0.012090
0.964892 0.724500 0.011869
1.000000 0.725129 0.011668
0.124399 0.664717 0.122506
0.195955 0.675426 0.134555
0.311129 0.693135 0.153862
0.423826 0.711128 0.173048
0.532442 0.729073 0.191562
0.636399 0.746797 0.209182
0.834660 0.880040 0.011793
0.964194 0.881541 0.011314
1.000000 0.882581 0.010983
0.134824 0.725395 0.132926
0.206319 0.736289 0.144929
0.321648 0.754385 0.164368
0.434445 0.772758 0.183642
0.542957 0.791025 0.202076
0.646813 0.809058 0.219619
0.746497 0.826866 0.236366
0.963665 0.965842 0.010894
1.000000 0.967091 0.010496
0.008849 0.000000 0.098952
0.105683 0.000000 0.099664
0.261674 0.000000 0.100759
0.413588 0.000000 0.101725
0.559810 0.000000 0.102521
0.699791 0.000000 0.103131
0.834146 0.000000 0.103548
0.964524 0.000000 0.103777
1.000000 0.000000 0.103822
0.009543 0.068982 0.099525
0.106354 0.065326 0.100219
0.262286 0.059659 0.101267
0.414116 0.054521 0.102165
0.560232 0.050048 0.102879
0.700092 0.046293 0.103392
0.834317 0.043248 0.103706
0.964555 0.040875 0.103824
1.000000 0.039879 0.103807
0.044632 0.155297 0.100302
0.116513 0.165010 0.112597
0.263208 0.180280 0.102035
0.414869 0.175562 0.102799
0.560786 0.171582 0.103355
0.700428 0.168373 0.103695
0.834419 0.165909 0.103823
0.964580 0.164143 0.103873
1.000000 0.163477 0.104085
0.061376 0.248893 0.116932
0.133212 0.258743 0.129194
0.264017 0.305940 0.102715
0.415468 0.301743 0.103313
0.561151 0.298348 0.103682
0.700541 0.295763 0.103823
0.834452 0.293947 0.103880
0.965033 0.292843 0.104232
1.000000 0.292533 0.104331
0.078924 0.347586 0.134378
0.150699 0.357623 0.146594
0.266265 0.374129 0.166198
0.415869 0.435080 0.103671
0.561277 0.432368 0.103823
0.700597 0.430492 0.103898
0.834917 0.429394 0.104248
0.965208 0.429008 0.104371
1.000000 0.429078 0.104349
0.097325 0.451947 0.152697
0.169022 0.462226 0.164852
0.284443 0.479175 0.184347
0.396777 0.496202 0.203222
0.561365 0.574438 0.103923
0.701066 0.573350 0.104270
0.835071 0.573032 0.104371
0.965055 0.573413 0.104250
1.000000 0.573881 0.104100
0.116445 0.561538 0.171760
0.188045 0.572111 0.183843
0.303296 0.589583 0.203208
0.415714 0.607235 0.222163
0.524411 0.624934 0.240738
0.701188 0.723726 0.104367
0.834862 0.724233 0.104205
0.964528 0.725405 0.103831
1.000000 0.726279 0.103552
0.135986 0.674997 0.191284
0.207475 0.685911 0.203282
0.322840 0.704051 0.222752
0.435627 0.722458 0.242018
0.544128 0.740757 0.260443
0.647973 0.758821 0.277979
0.834256 0.881046 0.103723
0.963606 0.883004 0.103099
1.000000 0.884273 0.102694
0.146352 0.735854 0.201659
0.217778 0.746963 0.213609
0.333502 0.765555 0.233377
0.446179 0.784294 0.252560
0.554575 0.802916 0.270906
0.658321 0.821285 0.288366
0.757903 0.839407 0.305035
0.962963 0.967589 0.102589
1.000000 0.969056 0.102121
0.010189 0.000000 0.249234
0.106971 0.000000 0.249906
0.262833 0.000000 0.250898
0.414570 0.000000 0.251722
0.560575 0.000000 0.252347
0.700312 0.000000 0.252763
0.834404 0.000000 0.252972
0.964503 0.000000 0.252979
1.000000 0.000000 0.253097
0.010843 0.063296 0.249775
0.107586 0.059812 0.250415
0.263361 0.054534 0.251339
0.414988 0.049901 0.252076
0.560866 0.046019 0.252601
0.700465 0.042915 0.252907
0.834412 0.040561 0.253000
0.964679 0.038909 0.253127
1.000000 0.038305 0.253319
0.011853 0.183696 0.250614
0.108511 0.180423 0.251186
0.264114 0.175574 0.251973
0.415535 0.171454 0.252547
0.561183 0.168145 0.252889
0.700537 0.165650 0.253000
0.834530 0.163926 0.253117
0.965073 0.162915 0.253440
1.000000 0.162654 0.253523
0.080532 0.264229 0.228469
0.152302 0.274283 0.240680
0.264715 0.301753 0.252487
0.415891 0.298241 0.252867
0.561276 0.295587 0.253000
0.700646 0.293770 0.253112
0.834941 0.292731 0.253443
0.965209 0.292405 0.253547
1.000000 0.292505 0.253515
0.097980 0.363228 0.245839
0.169675 0.373513 0.257993
0.285092 0.390475 0.277484
0.416007 0.432287 0.252999
0.561381 0.430374 0.253111
0.701073 0.429307 0.253451
0.835071 0.429010 0.253546
0.965047 0.429410 0.253419
1.000000 0.429888 0.253266
0.116255 0.467979 0.264060
0.187857 0.478546 0.276144
0.303112 0.496007 0.295512
0.415517 0.513643 0.314456
0.561824 0.573296 0.253462
0.701189 0.573043 0.253543
0.834870 0.573533 0.253387
0.964542 0.574690 0.253018
1.000000 0.575556 0.252742
0.135221 0.578042 0.283007
0.206715 0.588939 0.295010
0.322048 0.607038 0.314452
0.434844 0.625414 0.333725
0.543354 0.643684 0.352158
0.700940 0.724344 0.253345
0.834294 0.725646 0.252930
0.963659 0.727567 0.252317
1.000000 0.728817 0.251919
0.154585 0.692044 0.302396
0.226242 0.703384 0.314538
0.341960 0.722259 0.334306
0.454553 0.741259 0.353425
0.562867 0.760132 0.371709
0.666536 0.778736 0.389110
0.766048 0.797073 0.405727
0.962393 0.886021 0.251312
1.000000 0.887635 0.250798
0.165069 0.753268 0.312874
0.236906 0.764878 0.325165
0.352513 0.784094 0.344849
0.464997 0.803429 0.363885
0.573207 0.822620 0.382090
0.676780 0.841518 0.399419
0.776205 0.860123 0.415969
0.961579 0.971032 0.250666
1.000000 0.972823 0.250095
0.011418 0.000000 0.396922
0.108116 0.000000 0.397526
0.263800 0.000000 0.398377
0.415316 0.000000 0.399026
0.561069 0.000000 0.399451
0.700534 0.000000 0.399651
0.834342 0.000000 0.399634
0.964930 0.000000 0.399995
1.000000 0.000000 0.400127
0.012007 0.057991 0.397411
0.108649 0.054757 0.397971
0.264221 0.049985 0.398733
0.415605 0.045956 0.399278
0.561214 0.042745 0.399588
0.700527 0.040353 0.399667
0.834612 0.038734 0.399852
0.965113 0.037829 0.400140
1.000000 0.037624 0.400206
0.012879 0.178734 0.398140
0.109410 0.175775 0.398612
0.264772 0.171528 0.399207
0.415917 0.168093 0.399562
0.561270 0.165520 0.399669
0.700709 0.163786 0.399831
0.834971 0.162830 0.400136
0.965206 0.162585 0.400214
1.000000 0.162728 0.400169
0.013626 0.304548 0.398770
0.110021 0.301929 0.399134
0.265133 0.298302 0.399531
0.416005 0.295547 0.399670
0.561417 0.293683 0.399809
0.701090 0.292664 0.400134
0.835069 0.292413 0.400214
0.965026 0.292859 0.400071
1.000000 0.293361 0.399911
0.116590 0.378998 0.355330
0.188191 0.389567 0.367413
0.303444 0.407033 0.386780
0.416122 0.430348 0.399789
0.561826 0.429267 0.400133
0.701189 0.429020 0.400212
0.834867 0.429517 0.400054
0.964536 0.430680 0.399683
1.000000 0.431549 0.399406
0.134720 0.484192 0.373442
0.206219 0.495076 0.385447
0.321527 0.513146 0.404869
0.434330 0.531501 0.424148
0.561922 0.573053 0.400209
0.700955 0.573625 0.400027
0.834322 0.574898 0.399621
0.963697 0.576792 0.399017
1.000000 0.578029 0.398622
0.153517 0.594771 0.392261
0.225125 0.606071 0.404362
0.340857 0.624906 0.424141
0.453464 0.643864 0.443270
0.561790 0.662699 0.461563
0.700346 0.725822 0.399543
0.833398 0.727876 0.398888
0.962486 0.730487 0.398055
1.000000 0.732079 0.397548
0.173262 0.709497 0.411971
0.245047 0.721264 0.424224
0.360571 0.740738 0.443844
0.472973 0.760323 0.462818
0.581106 0.779749 0.480965
0.684610 0.798862 0.498240
0.783972 0.817658 0.514742
0.960911 0.889710 0.396805
1.000000 0.891625 0.396194
0.183889 0.771104 0.422570
0.255605 0.783084 0.434771
0.371017 0.802901 0.454306
0.483311 0.822816 0.473198
0.591344 0.842549 0.491269
0.694758 0.861938 0.508475
0.794040 0.880979 0.524917
0.959948 0.975092 0.396041
1.000000 0.977160 0.395381
0.012485 0.000000 0.540970
0.109071 0.000000 0.541486
0.264536 0.000000 0.542162
0.415797 0.000000 0.542609
0.561273 0.000000 0.542814
0.700447 0.000000 0.542783
0.834834 0.000000 0.543188
0.965195 0.000000 0.543365
1.000000 0.000000 0.543372
0.012985 0.053204 0.541389
0.109500 0.050286 0.541848
0.264831 0.046115 0.542419
0.415943 0.042764 0.542747
0.561259 0.040280 0.542826
0.700774 0.038637 0.543043
0.834999 0.037771 0.543319
0.965199 0.037616 0.543368
1.000000 0.037806 0.543308
0.013686 0.174376 0.541981
0.110067 0.171791 0.542334
0.265155 0.168224 0.542712
0.416000 0.165534 0.542829
0.561465 0.163737 0.543007
0.701111 0.162785 0.543311
0.835063 0.162600 0.543370
0.964996 0.163109 0.543207
1.000000 0.163643 0.543037
0.014222 0.300714 0.542444
0.110445 0.298521 0.542672
0.265255 0.295648 0.542829
0.416143 0.293693 0.542966
0.561835 0.292642 0.543301
0.701187 0.292424 0.543370
0.834854 0.292949 0.543203
0.964512 0.294138 0.542824
1.000000 0.295021 0.542542
0.014548 0.434238 0.542743
0.110588 0.432501 0.542826
0.265343 0.430415 0.542927
0.416554 0.429271 0.543292
0.561923 0.429026 0.543370
0.700962 0.429585 0.543192
0.834333 0.430846 0.542790
0.963713 0.432728 0.542189
1.000000 0.433960 0.541797
0.152587 0.500496 0.480087
0.224152 0.511761 0.492153
0.339896 0.530559 0.511941
0.452514 0.549481 0.531079
0.561678 0.573660 0.543176
0.700392 0.575026 0.542740
0.833463 0.577035 0.542099
0.962567 0.579606 0.541279
1.000000 0.581177 0.540778
0.171699 0.611746 0.499173
0.243496 0.623479 0.511435
0.359038 0.642896 0.531069
0.471457 0.662427 0.550056
0.579607 0.681802 0.568216
0.699445 0.728063 0.541988
0.832221 0.730806 0.541114
0.961061 0.734034 0.540084
1.000000 0.735923 0.539482
0.191557 0.727137 0.518986
0.263223 0.739268 0.531149
0.378556 0.759328 0.550624
0.490775 0.779473 0.569459
0.598739 0.799417 0.587478
0.702091 0.818994 0.604638
0.801321 0.838198 0.621039
0.959220 0.893918 0.538623
1.000000 0.896086 0.537932
0.202080 0.789064 0.529506
0.273677 0.801409 0.541616
0.388898 0.821808 0.561007
0.501013 0.842271 0.579763
0.608884 0.862503 0.597711
0.712154 0.882332 0.614808
0.811313 0.901752 0.631156
0.958132 0.979610 0.537760
1.000000 0.981903 0.537028
0.013356 0.000000 0.681016
0.109806 0.000000 0.681425
0.265019 0.000000 0.681902
0.416001 0.000000 0.682127
0.561188 0.000000 0.682103
0.700974 0.000000 0.682518
0.835064 0.000000 0.682686
0.965130 0.000000 0.682630
1.000000 0.000000 0.682514
0.013748 0.049017 0.681350
0.110115 0.046469 0.681691
0.265176 0.042969 0.682048
0.415993 0.040351 0.682143
0.561514 0.038627 0.682362
0.701131 0.037747 0.682642
0.835055 0.037633 0.682679
0.964960 0.038210 0.682495
1.000000 0.038780 0.682313
0.014248 0.170687 0.681783
0.110461 0.168520 0.682003
0.265252 0.165692 0.682145
0.416176 0.163784 0.682308
0.561849 0.162780 0.682628
0.701182 0.162609 0.682682
0.834831 0.163178 0.682501
0.964473 0.164410 0.682108
1.000000 0.165313 0.681820
0.014550 0.297609 0.682061
0.110588 0.295877 0.682142
0.265348 0.293799 0.682248
0.416557 0.292663 0.682610
0.561922 0.292425 0.682686
0.700958 0.292993 0.682505
0.834326 0.294261 0.682100
0.963704 0.296149 0.681498
1.000000 0.297384 0.681104
0.014604 0.431810 0.682144
0.110613 0.430569 0.682194
0.265782 0.429321 0.682592
0.416655 0.429020 0.682688
0.561695 0.429593 0.682505
0.700423 0.430925 0.682080
0.833506 0.432904 0.681449
0.962621 0.435446 0.680638
1.000000 0.437004 0.680142
0.014848 0.574081 0.682357
0.111098 0.573387 0.682579
0.265905 0.573040 0.682689
0.416421 0.573626 0.682502
0.561123 0.575041 0.682051
0.699539 0.577150 0.681378
0.832338 0.579833 0.680523
0.961199 0.583008 0.679510
1.000000 0.584872 0.678915
0.189521 0.628855 0.603329
0.261203 0.640941 0.615503
0.376558 0.660929 0.634996
0.488799 0.681007 0.653847
0.596784 0.700889 0.671881
0.698283 0.730956 0.680382
0.830813 0.734311 0.679312
0.959439 0.738070 0.678113
1.000000 0.740209 0.677430
0.209189 0.744829 0.622997
0.280740 0.757314 0.635072
0.395889 0.777934 0.654409
0.507937 0.798603 0.673114
0.615749 0.819018 0.691016
0.718967 0.839005 0.708074
0.818082 0.858558 0.724389
0.957378 0.898502 0.676477
1.000000 0.900869 0.675722
0.219610 0.807068 0.633440
0.291092 0.819763 0.645463
0.406135 0.840711 0.664718
0.518085 0.861680 0.683349
0.625811 0.882358 0.701186
0.728956 0.902570 0.718189
0.828011 0.922307 0.734458
0.956192 0.984438 0.675536
1.000000 0.986901 0.674750
0.014008 0.000000 0.817442
0.110304 0.000000 0.817727
0.265241 0.000000 0.817985
0.415925 0.000000 0.817975
0.561704 0.000000 0.818381
0.701188 0.000000 0.818555
0.834982 0.000000 0.818489
0.964762 0.000000 0.818206
1.000000 0.000000 0.817973
0.014278 0.045467 0.817678
0.110479 0.043330 0.817888
0.265249 0.040556 0.818013
0.416214 0.038704 0.818205
0.561864 0.037756 0.818508
0.701175 0.037639 0.818545
0.834803 0.038259 0.818347
0.964425 0.039540 0.817939
1.000000 0.040469 0.817642
0.014556 0.167689 0.817935
0.110588 0.165973 0.818011
0.265368 0.163923 0.818132
0.416566 0.162815 0.818485
0.561920 0.162606 0.818552
0.700945 0.163199 0.818362
0.834303 0.164492 0.817950
0.963671 0.166404 0.817340
1.000000 0.167650 0.816943
0.014605 0.295239 0.818012
0.110604 0.293991 0.818054
0.265778 0.292730 0.818457
0.416656 0.292416 0.818557
0.561701 0.292977 0.818378
0.700434 0.294298 0.817957
0.833521 0.296265 0.817329
0.962640 0.298798 0.816521
1.000000 0.300351 0.816026
0.014812 0.430147 0.818197
0.111076 0.429416 0.818430
0.265907 0.429010 0.818559
0.416448 0.429537 0.818391
0.561171 0.430897 0.817957
0.699607 0.432957 0.817301
0.832425 0.435595 0.816459
0.961301 0.438730 0.815459
1.000000 0.440575 0.814871
0.015201 0.573202 0.818506
0.111241 0.573031 0.818560
0.265706 0.573535 0.818400
0.415895 0.574938 0.817952
0.560292 0.577109 0.817260
0.698433 0.579902 0.816369
0.830990 0.583189 0.815321
0.959640 0.586890 0.814140
1.000000 0.589002 0.813467
0.015240 0.723787 0.818536
0.111042 0.724207 0.818402
0.265129 0.725650 0.817942
0.414964 0.727934 0.817213
0.559041 0.730902 0.816267
0.696902 0.734394 0.815153
0.829218 0.738279 0.813914
0.957666 0.742481 0.812574
1.000000 0.744821 0.811827
0.226222 0.762581 0.724311
0.297662 0.775405 0.736302
0.412640 0.796551 0.755508
0.524532 0.817699 0.774095
0.632207 0.838533 0.791893
0.735309 0.858874 0.808864
0.834331 0.878715 0.825107
0.955432 0.903345 0.810800
1.000000 0.905859 0.809998
0.236546 0.825118 0.734680
0.307920 0.838145 0.746621
0.422797 0.859602 0.765750
0.534599 0.881025 0.784268
0.642197 0.902094 0.802008
0.745237 0.922626 0.818932
0.844209 0.942618 0.835138
0.954174 0.989459 0.809802
1.000000 0.992039 0.808979
0.014431 0.000000 0.951289
0.110557 0.000000 0.951440
0.265197 0.000000 0.951462
0.416405 0.000000 0.951831
0.561922 0.000000 0.952027
0.701103 0.000000 0.951962
0.834608 0.000000 0.951666
0.964114 0.000000 0.951165
1.000000 0.000000 0.950822
0.014565 0.042559 0.951418
0.110587 0.040868 0.951486
0.265398 0.038861 0.951629
0.416578 0.037797 0.951968
0.561915 0.037630 0.952021
0.700924 0.038264 0.951819
0.834267 0.039595 0.951395
0.963621 0.041542 0.950774
1.000000 0.042806 0.950371
0.014604 0.165378 0.951485
0.110614 0.164138 0.951536
0.265783 0.162891 0.951934
0.416655 0.162592 0.952030
0.561694 0.163166 0.951846
0.700422 0.164500 0.951421
0.833504 0.166480 0.950790
0.962619 0.169023 0.949978
1.000000 0.170582 0.949481
0.014794 0.293589 0.951656
0.111066 0.292841 0.951895
0.265908 0.292406 0.952034
0.416459 0.292906 0.951874
0.561193 0.294240 0.951448
0.699638 0.296277 0.950799
0.832464 0.298894 0.949964
0.961349 0.302010 0.948970
1.000000 0.303847 0.948385
0.015182 0.429225 0.951964
0.111240 0.429008 0.952033
0.265736 0.429437 0.951897
0.415953 0.430769 0.951472
0.560376 0.432875 0.950800
0.698541 0.435609 0.949928
0.831118 0.438845 0.948896
0.959786 0.442503 0.947729
1.000000 0.444594 0.947062
0.015255 0.573067 0.952022
0.111086 0.573415 0.951911
0.265220 0.574744 0.951487
0.415097 0.576922 0.950793
0.559212 0.579796 0.949876
0.697105 0.583206 0.948789
0.829450 0.587022 0.947571
0.957920 0.591169 0.946249
1.000000 0.593484 0.945511
0.014961 0.724479 0.951789
0.110558 0.725410 0.951492
0.264327 0.727648 0.950778
0.413869 0.730659 0.949818
0.557689 0.734265 0.948668
0.695332 0.738299 0.947381
0.827470 0.742630 0.946000
0.955775 0.747186 0.944547
1.000000 0.749678 0.943752
0.014269 0.881505 0.951240
0.109635 0.883011 0.950759
0.263050 0.886128 0.949765
0.412279 0.889918 0.948556
0.555834 0.894187 0.947195
0.693261 0.898758 0.945737
0.825230 0.903506 0.944223
0.953414 0.908367 0.942672
1.000000 0.910977 0.941840
0.013744 0.965798 0.950822
0.108992 0.967597 0.950249
0.439033 0.878564 0.864901
0.550704 0.900389 0.883320
0.658194 0.921790 0.900977
0.761149 0.942582 0.917836
0.860059 0.962764 0.933995
0.952110 0.994597 0.941637
1.000000 0.997241 0.940794
0.014558 0.000000 1.000000
0.110588 0.000000 1.000000
0.265372 0.000000 1.000000
0.416567 0.000000 1.000000
0.561919 0.000000 1.000000
0.700942 0.000000 1.000000
0.834298 0.000000 1.000000
0.963665 0.000000 1.000000
1.000000 0.000000 1.000000
0.014616 0.041282 1.000000
0.110538 0.039839 1.000000
0.265643 0.038251 1.000000
0.416653 0.037610 1.000000
0.561824 0.037855 1.000000
0.700676 0.038879 1.000000
0.833873 0.040574 1.000000
0.963092 0.042857 1.000000
1.000000 0.044287 1.000000
0.014525 0.164431 1.000000
0.110890 0.163452 1.000000
0.265885 0.162637 1.000000
0.416585 0.162766 1.000000
0.561460 0.163748 1.000000
0.700036 0.165462 1.000000
0.832979 0.167787 1.000000
0.961968 0.170644 1.000000
1.000000 0.172354 1.000000
0.015030 0.293003 1.000000
0.111193 0.292523 1.000000
0.265859 0.292527 1.000000
0.416240 0.293452 1.000000
0.560814 0.295183 1.000000
0.699115 0.297580 1.000000
0.831811 0.300519 1.000000
0.960582 0.303919 1.000000
1.000000 0.305890 1.000000
0.015261 0.429030 1.000000
0.111209 0.429085 1.000000
0.265530 0.429950 1.000000
0.415581 0.431695 1.000000
0.559852 0.434178 1.000000
0.697883 0.437246 1.000000
0.830344 0.440772 1.000000
0.958912 0.444676 1.000000
1.000000 0.446881 1.000000
0.015167 0.573288 1.000000
0.110889 0.573906 1.000000
0.264852 0.575659 1.000000
0.414572 0.578228 1.000000
0.558547 0.581450 1.000000
0.696321 0.585159 1.000000
0.828565 0.589224 1.000000
0.956954 0.593573 1.000000
1.000000 0.595977 1.000000
0.014700 0.725129 1.000000
0.110192 0.726321 1.000000
0.263799 0.728961 1.000000
0.413197 0.732331 1.000000
0.556893 0.736246 1.000000
0.694434 0.740534 1.000000
0.826491 0.745066 1.000000
0.954736 0.749774 1.000000
1.000000 0.752327 1.000000
0.013837 0.882581 1.000000
0.109104 0.884333 1.000000
0.262371 0.887817 1.000000
0.411473 0.891924 1.000000
0.554923 0.896453 1.000000
0.692269 0.901225 1.000000
0.824180 0.906120 1.000000
0.952325 0.911076 1.000000
1.000000 0.913717 1.000000
0.013224 0.967091 1.000000
0.108378 0.969124 1.000000
0.261479 0.973023 1.000000
0.410440 0.977481 1.000000
0.553777 0.982289 1.000000
0.691040 0.987270 1.000000
0.822894 0.992306 1.000000
0.951007 0.997342 1.000000
1.000000 1.000000 1.000000
